dist/img/skills/basic/html5.svg

<svg width="128" height="128" fill="none" xmlns="http://www.w3.org/2000/svg"><path d="M13.52 5.12a2.56 2.56 0 00-2.08 2.8l9.04 100.96c.12 1.03.85 1.88 1.84 2.16l40.96 11.76c.47.14.97.14 1.44 0l40.96-11.76c.99-.28 1.72-1.13 1.84-2.16l9.04-100.96c.07-.72-.17-1.43-.66-1.97-.49-.53-1.18-.83-1.9-.83H13.52zm3.28 5.12h94.4l-8.56 96.4L64 117.6l-38.64-10.96-8.56-96.4zm15.28 15.52a2.56 2.56 0 00-2.08 2.8l3.44 37.84a2.562 2.562 0 002.48 2.4H76.8l-1.12 11.76-11.6 2.48-11.76-2.48-.4-4.16a2.562 2.562 0 00-2.56-2.4H36.88c-.72 0-1.41.3-1.9.83-.49.54-.73 1.25-.66 1.97l1.44 15.68a2.56 2.56 0 001.76 2.24l25.44 7.76.32.08c.47.14.97.14 1.44 0l25.76-7.84a2.546 2.546 0 001.84-2.24L95.68 54c.07-.71-.16-1.41-.63-1.94s-1.14-.84-1.85-.86H49.6l-.64-7.92h45.36c1.33.01 2.44-1 2.56-2.32L98 28.56c.07-.72-.17-1.43-.66-1.97-.49-.53-1.18-.83-1.9-.83H32.56c-.16-.02-.32-.02-.48 0zm3.28 5.12h57.28L92 38.16H46.16c-.72 0-1.41.3-1.9.83-.49.54-.73 1.25-.66 1.97L44.8 54a2.558 2.558 0 002.48 2.32H90.4l-3.04 34L64 97.36l-23.36-7.04-.96-11.2h7.36l.32 3.76c.08 1.13.89 2.07 2 2.32l14.24 2.96c.34.07.7.07 1.04 0l14-2.96a2.563 2.563 0 002-2.32l1.52-16.48c.04-.71-.21-1.4-.69-1.91-.49-.52-1.16-.81-1.87-.81H38.24l-2.88-32.8z" fill="#F8F8FF" opacity=".32"/></svg>

<svg width="128" height="128" viewBox="0 0 128 128" fill="none" xmlns="http://www.w3.org/2000/svg">
<g opacity="0.32">
<path d="M13.52 5.12C12.2 5.36 11.29 6.59 11.44 7.91999L20.48 108.88C20.6 109.91 21.33 110.76 22.32 111.04L63.28 122.8C63.75 122.94 64.25 122.94 64.72 122.8L105.68 111.04C106.67 110.76 107.4 109.91 107.52 108.88L116.56 7.91999C116.63 7.19999 116.39 6.48999 115.9 5.95C115.41 5.42 114.72 5.12 114 5.12H14C13.92 5.12 13.84 5.12 13.76 5.12C13.68 5.12 13.6 5.12 13.52 5.12ZM16.8 10.24H111.2L102.64 106.64L64 117.6L25.36 106.64L16.8 10.24ZM32.08 25.76C30.76 26 29.85 27.23 30 28.56L33.44 66.4C33.52 67.72 34.6 68.76 35.92 68.8H76.8L75.68 80.56L64.08 83.04L52.32 80.56L51.92 76.4C51.84 75.05 50.71 74 49.36 74H36.88C36.16 74 35.47 74.3 34.98 74.83C34.49 75.37 34.25 76.08 34.32 76.8L35.76 92.48C35.84 93.51 36.53 94.4 37.52 94.72L62.96 102.48L63.28 102.56C63.75 102.7 64.25 102.7 64.72 102.56L90.48 94.72C91.5 94.43 92.23 93.54 92.32 92.48L95.68 54C95.75 53.29 95.52 52.59 95.05 52.06C94.58 51.53 93.91 51.22 93.2 51.2H49.6L48.96 43.28H94.32C95.65 43.29 96.76 42.28 96.88 40.96L98 28.56C98.07 27.84 97.83 27.13 97.34 26.59C96.85 26.06 96.16 25.76 95.44 25.76H32.56C32.4 25.74 32.24 25.74 32.08 25.76ZM35.36 30.88H92.64L92 38.16H46.16C45.44 38.16 44.75 38.46 44.26 38.99C43.77 39.53 43.53 40.24 43.6 40.96L44.8 54C44.92 55.29 45.99 56.29 47.28 56.32H90.4L87.36 90.32L64 97.36L40.64 90.32L39.68 79.12H47.04L47.36 82.88C47.44 84.01 48.25 84.95 49.36 85.2L63.6 88.16C63.94 88.23 64.3 88.23 64.64 88.16L78.64 85.2C79.75 84.95 80.56 84.01 80.64 82.88L82.16 66.4C82.2 65.69 81.95 65 81.47 64.49C80.98 63.97 80.31 63.68 79.6 63.68H38.24L35.36 30.88Z" fill="#F8F8FF"/>
</g>
</svg>
